X:1
T:Title
%%score [ 1 2 3 4 ]
L:1/8
Q:1/4=120
M:2/2
K:C
V:1 treble nm="MusicXML Part"
V:2 treble nm="MusicXML Part"
V:3 treble-8 nm="MusicXML Part"
V:4 treble-8 nm="MusicXML Part"
V:1
 z8 | z8 |"^Magnificat Septimi Toni \"Anima mea\"" z8 |"^Christobal de Morales" z8 |"^1545" z8 | %5
w: |||||
[M:2/2] z8 | z8 | d4 d2 d2 | e6 d2 | c2 BA B2 B2 | A4 z4 | z8 | z2 d2 d2 d2 | e6 d2 | c2 BA B2 B2 | %15
w: ||A- ni- ma|me- a|do * * * mi-|­num,||a- ni- ma|me- a|do * * * *|
 A3 B c2 B2- | BA A4 ^G2 |"^Et exultavit spiritus meus\nin deo salutari meo." A8 || %18
w: |* * * mi-|num.|
[M:2/2] A4 B2 c2 | d2 B2 c2 d2- | d2 c2 d2 e2 | A2 d2 e2 f2- | f2 ed c2 d2- | dc A2 B4 | %24
w: Qui- a re-|spe * * *||xit hu- mi- li-|* * * * ta|* * * tem|
[M:2/2] z8 | z2 A2 c2 d2 | e6 d2 | c3 B cA B2- | BA A4 ^G2 | A8 | z2 e4 c2 | f4 e2 d2- | d2 cB c4 | %33
w: |an- cil- lae|su- *|||­ae.|Ec- ce,|e- * *|* * * nim|
 z8 | z2 A2 c2 d2 | e3 d e2 f2- | f2 ed c4 | z8 | z8 | z2 A4 A2 | d3 e fd f2- | f2 ed e4- | %42
w: |ex hoc be-|a- tam me di-|* * * cent|||om- nes|ge- ne- ra- ti- o-||
 e2 c2 B4 | A4 z2 A2 | c2 d2 e2 c2- | c2 BA G2 B2- | B2 AG A2 B2 | c3 B GA B2- | BA A4 ^G2 | %49
w: |nes, om-|nes ge- ne- ra-|* ti * o- *||||
"^Quia fecit mihi\nmagna, qui potens\nest et sanctum\nnomen eius." A8 ||[M:2/2] z8 | z8 | z8 | %53
w: nes.||||
 e6 A2 | c2 d2 e3 d | cB c4 BA |[M:2/2] G2 g3 fed | e2 dc B2 e2- | ed c3 B A2- | A2 GF E2 e2- | %60
w: Et mi-|se- ri- cor *|* * * di *|­a e- * * *|||* * * ius a|
 e2 A2 c2 d2 | e3 d e2 f2- | f2 ed c3 d | e2 f3 e d2- | d2 cB c2 A2- | A2 GF E4 | z2 e2 e2 c2 | %67
w: * pro- ge *|* ni- e in||* pro- * *|* * * ge- ni-|* * * es|ti- men- ti-|
 d2 f4 ed | e2 f2 ed d2- | d2 cB c2 B2 | e4 dcBA | B4 A4- | A4 z4 | z2 e2 e2 c2 | d2 f4 ed | %75
w: ­bus e- * *||||* um,||ti- men- ti-|bus e- * *|
 e2 f2 e2 d2- | d2 cB c3 d | e2 A2 d4 | c2 BA B2 c2 | BA A4 ^G2 | %80
w: |||||
"^Fecit potentiam in\nbrachio suo.\nDispersit superbos\nmente cordis sui." A8 ||[M:2/2] z4 A4 | %82
w: um.|De-|
 c6 B2 | c2 d2 e3 d | ef g3 f d2 | e2 dc B2 e2- | e2 c2 d2 e2 |[M:2/2] A2 c3 B A2 | G2 A4 G2 | %89
w: po- su-|it po- ten *||* * * tes, po-|* ten- tes de|se * * *||
 A3 B c2 d2- | dcBA BG g2- | gf d2 e2 dc | d4 z2 d2 | d2 c2 A2 c2 | B8 | A8 | z2 e2 e2 e2 | %97
w: |||­de, po-|ten- tes de se-||de|et ex- al-|
 f3 e dc d2- | d2 cB c2 d2 | G2 g3 f e2 | d2 c4 B2 | c2 e3 d c2- | c2 BA B4 | z8 | z2 e2 e2 e2 | %105
w: ­ta * * * *||vit hu- * *|mi- * *|les, * * *|||et ex- al-|
 f2 d2 f4 | e2 d3 c A2 | c2 BA B2 c2 | dcBA B4 | A3 B c2 B2- | BA A4 ^G2 | %111
w: ta- vit hu-|||||* * * mi-|
"^Esurientes implevit bonis\net divites dimisit inanes." A8 ||[M:2/2] z8 | z8 | z8 | A4 B2 c2 | %116
w: les.||||Sus- ce- pit|
 d2 e2 A4 | z4 z2 e2 |[M:2/2] f2 e4 c2 | d2 e2 ABcA | B2 c2 A2 c2- | cB A4 ^G2 | A4 z4 | z8 | %124
w: Is- ra- el|pu-|­e- rum su||||um,||
 f6 e2 | e4 d2 e2- | ed d2 e4 | z8 | z4 f4- | f2 e2 e4 | d8 | e8 | z8 | z4 d4- | d4 c4 | f8 | e8 | %137
w: pu- e-|rum su *|* * * um,||pu-|* e- rum|su-|um||re-|* cor-|da-|tus|
 z4 g4 | f2 d2 f4 | e2 c3 d e2- | ef g3 f e2 | d2 f2 e2 d2- | d2 cB cd e2- | e2 dc dcBA | %144
w: mi-|se- ri- cor-|di- ae * *|* * su * *||||
 G2 A3 ^G G2 |"^Sicut locutus est ad patres\nnostros, Abraham et semini\neius in saecula." A8 || %146
w: |ae.|
[M:2/2] A8 | A4 A4 | GA_Bc d2 e2 | f2 g3 e g2- | g2 fe f2 d2- | dcBA B4 | A4 z2 f2- | %153
w: Glo-|ri- a|pa * * * * *||||tri et|
[M:2/2] (fe) d4 cB | c2 A2 e4 | z2 f3 e d2- | d2 ^cB c4 | z2 B3 B B2 | c2 A4 f2- | fe d3 c B2- | %160
w: * * fi * *|* li- o,|et * fi-|* li * o|et spi- ri-|tu- i sanc-||
 B2 AG A2 B2 | c2 e3 d c2- | c2 BA G4 | F2 f3 f f2 | e2 c2 e4 | d8 | z2 f3 f f2 | e2 d2 f3 e/d/ | %168
w: |||to, et spi- ri-|tu- i sanc-|­to,|et spi- ri-|tu- i sanc * *|
 c2 d3 A d2- | d2 ^cB c4- | c8 |] %171
w: |* * * to.||
V:2
 z8 | z8 | z8 | z8 | G4 G2 G2 |[M:2/2] A6 G2 | F2 ED E2 E2 | DEFG A2 B2 | c2 G2 A2 B2- | BA A4 G2 | %10
w: ||||A- ni- ma|me- a|do * * * *||||
w: ||||||||||
w: ||||||||||
 A2 DE FGAB | c2 BA Bc B2- | BA A4 G2 | c3 B AG A2- | A2 GF G4 | E8 | F4 E4- | E8 ||[M:2/2] z4 E4 | %19
w: ||||* mi * num,|do-|mi- num.||Qui-|
w: |||||||||
w: |||||||||
 F2 G2 A2 F2 | G2 A2 G4 | F2 G4 F2 | A3 G A2 B2- | BA A4 ^G2 |[M:2/2] A2 GF E2 A2 | B2 c4 BA | G8 | %27
w: a re- spe- xit|hu- mi- li-|* ta- tem|an- * * cil-|* lae su- *||||
w: ||||||||
w: ||||||||
 A6 G2 | F2 E3 D D2- | D2 CB, C4 | z4 z2 A2- | A2 F2 G4 | A8 | z2 D2 F2 G2 | A6 B2 | A2 c3 BAG | %36
w: ||* * * ae.|Ec-|* ce, e-|nim|ex hoc be-|­a- tam|me di- * * *|
w: |||||||||
w: |||||||||
 A2 GF E4 | F2 G2 A2 G2 | c3 B A2 GF | E4 F4 | z2 D4 D2 | A3 B cA c2- | cB A4 ^G2 | A8 | %44
w: |||* cent|om- nes|ge- ne- ra- ti- o-||nes,|
w: ||||||||
w: ||||||||
 z4 z2 A,2 | C2 D2 E2 D2 | G4 F4 | G6 F2 | E8- | E8 ||[M:2/2] E6 A,2 | C2 D2 E3 D | C2 F4 ED | %53
w: om-|nes ge- * ne-|­ra- ti-|o- *|nes.||Et mi-|se- ri- cor- di-|a * * *|
w: |||||||||
w: |||||||||
 CA, A2 G2 FE | F4 z2 E2- | E2 A,2 C2 D2 |[M:2/2] EFGA B2 c2- | cB A4 G2 | A3 G E2 F2 | D4 C3 D | %60
w: * * e- * * *|ius a|* pro- ge *|||* * * ni-|e in *|
w: |||||||
w: |||||||
 E2 F3 EFG | C2 c3 BAG | A2 GF E2 A2- | A2 D2 F2 G2 | A3 G E2 F2- | FE D4 CB, | C4 z2 E2 | %67
w: * pro * * *|* ge * * *|* ni * es, in|* pro- ge- *||* * * ni- *|es ti-|
w: |||||||
w: |||||||
 F2 DE FGAB | c2 A2 GFFE/D/ | E2 A4 GF | G2 c2 BA A2- | A2 ^G2 A3 =G | E2 F2 E2 D2- | %73
w: ­men- ti * * * * *|bus e- * * * * *||um, ti- men * *|* * * ti-|­bus e * *|
w: ||||||
w: ||||||
 D2 CB, C2 F2- | FEDC DC c2- | cB A2 G2 F2- | F2 ED E2 A2 | A2 F2 G2 _B2 | A2 G3 F E2 | %79
w: |||* * * um, ti-|­men- ti- bus e-||
w: ||||||
w: ||||||
 DCCB,/A,/ B,4 | A,8 ||[M:2/2] D4 F4- | F2 E2 F2 G2 | A2 B2 c2 A2- | A2 GF G4- | G2 F2 G4 | %86
w: |um.|De- po-|* su- it po-|ten * * *||* tes de|
w: |||||||
w: |||||||
 A3 G F2 E2 |[M:2/2] F3 E C4 | E8 | C2 A,2 A4 | G8 | z2 G2 G4 | D3 C DE F2- | FG A3 G E2 | G4 G4 | %95
w: se * * *|* * de,|de|se * *|de,|po- ten-|­tes * * * *||de se-|
w: |||||||||
w: |||||||||
 F2 ED E2 A,2 | A4 z2 A2 | A2 A2 F2 F2 | G6 F2 | E4 D2 G,2 | G8 | E8 | z2 G2 G2 G2 | A8 | G8 | %105
w: |de et|ex- al- ta- vit|hu- *||mi-|les,|et ex- al-|­ta-|vit|
w: ||||||||||
w: ||||||||||
 F3 E D2 A2- | AGFE F4 | z2 G2 G2 G2 | A2 GF G4 | E8 | F4 E4- | E8 ||[M:2/2] A4 G2 E2 | F2 G2 A4 | %114
w: hu- * * mi|* * * * les,|et ex- al-|ta- * * vit|hu-|mi- les.||Sus- ce- pit|Is- ra- el|
w: |||||||||
w: |||||||||
 G2 F2 E4 | F6 E2 | D2 CB, CD E2- | E2 D2 E4 |[M:2/2] z4 z2 A2 | B2 A4 F2 | G2 C2 D2 A,2 | C4 B,4 | %122
w: ||||pu-|e- rum su-|um, pu- e- rum|su- um,|
w: ||||||||
w: ||||||||
 z4 z2 E2 | F2 E2 D2 C2- | CB, B,2 C4 | G4 F2 G2 | A4 G2 C2 | D2 E2 A,2 D2- | D2 C2 DEFG | %129
w: pu-|e- rum su *|* * * um,|pu- e- rum|su- um, pu-|e- rum su *||
w: |||||||
w: |||||||
 A2 B2 c2 B2- | B2 AG A4- | A2 GF G2 c2- | cB A4 GF | G2 A2 F2 G2 | A4 A4- | A2 A2 A4 | A4 c4 | %137
w: |||||um re-|* cor- da-|tus mi-|
w: ||||||||
w: ||||||||
 B2 G2 B4 | A2 F2 A3 B | c4 C3 D | E3 F G4 | z2 F2 G2 B2 | A6 A2 | A4 F4 | E8- | E8 ||[M:2/2] E8 | %147
w: ­se- ri- cor-|di- ae su- *|ae, su *|* * ae,|mi- se- ri-|cor- di-|­ae su-|ae.||Glo-|
w: ||||||||||
w: ||||||||||
 F8 | D4 G4 | A2 GF G3 A | B2 A4 F2 | G8 | C2 c3 BAG |[M:2/2] A8 | z2 c3 B A2 | G2 FE F2 G2 | A8 | %157
w: |ri- a|pa * * * *||||­tri|et * *|fi * * * li-|o|
w: ||||||||||
w: ||||||||||
 z2 G3 G G2 | E2 E2 F3 G | A2 F2 G2 D2 | G4 F4 | G4 G,4 | C8 | A,4 _B,4 | G,4 z2 G2- | %165
w: et spi- ri-|tui- i sanc- *|* * to, et|spi- ri-|tu *|||* et|
w: |||||sanc-||to *|
w: ||||* i||||
 GG G2 D2 D2 | F3 G A3 B | c2 F3 G A2- | AGFE F4 | E8- | E8 |] %171
w: * spi- ri- tu- i|sanc * * *|||to.||
w: ||||||
w: ||||||
V:3
 d4 d2 d2 | e6 dc | dc BA B2 B2 | ABcd ef e2- | ed d4 ^c2 |[M:2/2] f3 e cd e2- | ed d4 ^c2 | %7
w: A- ni- ma|me- * *|* * a * do- mi-|num, * * * * * *||||
 d3 e f2 g2 | c6 d2 | f4 e4 | z2 f2 f2 f2 | g6 f2 | e2 dc d2 d2 | c2 e2 f2 f2 | e2 dc d4 | %15
w: |||a- ni- ma|me- a|do * * * mi-|num, a- ni- ma|me * * *|
 c4 A2 B2 | c2 d2 B4 | A8 ||[M:2/2] z8 | z8 | z2 A2 B2 c2 | d2 B2 c2 d2- | d2 c2 f2 d2 | f4 e4 | %24
w: ­a do *|* * mi-|num.|||Qui- a re-|spe * * *|* * xit hu-|mi- li-|
[M:2/2] d4 c2 f2 | e3 d c2 g2- | gfed c2 d2 | e2 f3 e d2- | d2 c2 d4 | e4 z2 e2- | e2 c4 f2- | %31
w: ­ta- tem an-|cil- * lae su-||||­ae. Ec-|* ce, e-|
 fe d2 c2 B2 | A2 e3 c f2- | fedc d4 | e4 z4 | z8 | z4 z2 A2 | c2 d2 e3 d | e2 f3 e d2- | %39
w: |nim, ec- ce, e||­nim||ex|hoc be- a- *|tam me * di-|
 d2 ^c2 d4- | d4 z4 | z4 z2 A2- | A2 A2 d2 e2 | f2 d2 f4- | f4 e4 | z4 z2 d2- | d2 d2 d2 d2 | %47
w: * * cent||om-|* nes ge- ne-|ra- ti- o-|* nes,|om-|* nes ge- ne-|
 e6 d2 | c2 BA B4 | A8 || z8 | z8 | z8 | z8 | z8 | z8 | z8 | z8 | z8 | z8 | z8 | z8 | z8 | z8 | %64
w: ra- ti-|o- * * *|nes.|||||||||||||||
 z8 | z8 | z8 | z8 | z8 | z8 | z8 | z8 | z8 | z8 | z8 | z8 | z8 | z8 | z8 | z8 | z8 ||[M:2/2] z8 | %82
w: ||||||||||||||||||
 z8 | z4 A4 | c6 B2 | c2 d2 e4 | f3 e d2 c2- |[M:2/2] cBAG A2 c2- | c2 BA B4 | A2 a3 gfe | %90
w: |De-|po- su-|it po- ten-||||tes de * * *|
 d2 e4 dc | d4 z2 g2 | g4 f2 d2 | f3 e cdec | d2 e3 d d2- | d2 cB cd e2- | edcB c4 | z2 d2 d2 d2 | %98
w: * se- * *|de, po-|­ten- tes de|se * * * * *|||* * * * de|et ex- al-|
 e6 d2 | c2 c2 B2 g2- | gf e2 d4 | c2 AB cd e2- | e2 dc de d2- | d2 cB c2 d2 | edcB c4 | d8 | %106
w: ta- vit|hu- mi- les, *||* hu * * * *||* * * * mi||les,|
 z2 d2 d2 d2 | e8 | d8 | c4 A2 B2 | c2 d2 B4 | A8 ||[M:2/2] A4 B2 c2 | d2 e2 A3 B | cB d4 ^c2 | %115
w: et ex- al-|ta-|vit|hu- * *|* * mi-|les.|Sus- ce- pit|Is- ra- el, *||
 d4 z4 | z8 | A4 B2 c2 |[M:2/2] d2 e2 A4 | z8 | z2 e2 f2 e2- | e2 c2 d2 e2 | ABcA B2 c2 | %123
w: ||sus- ce- pit|Is- ra- el||pu- e- rum|* su * *||
 A2 G2 A4 | F4 G4 | z2 c2 d2 c2 | f4 e4 | z2 e2 f4 | e4 d3 e | f2 g2 a2 g2- | g2 fe f4 | e4 z4 | %132
w: |* um,|pu- e- rum|su- um,|pu- e-|rum su- *|||um,|
 f6 e2 | e4 d4 | e8 | d4 d4 | c8 | d8 | z2 a2 a2 f2 | g2 e4 a2 | gfed e4 | f2 d2 z2 g2 | %142
w: pu- e-|rum su-|um|re- cor-|da-|­tus|mi- se- ri-|cor- di- ae|su * * * *|* ae, mi-|
 e2 f2 e2 c2 | f3 e d3 c | B2 c2 B4 | A8 ||[M:2/2] c8- | c8 | _B8 | c8 | d8 | d8 | f8- | %153
w: se- ri- cor- di-|­ae * * *|* su- *|ae.|Glo-|||ri-||a|pa-|
[M:2/2] f4 e4 | e8 | d4 d4 | e8- | e8 | z4 d4- | d4 d4 | d8 | e8- | e8 | d8 | c8 | _B8 | A8- | %167
w: * tri|et|fi- li-|o||et|* spi-|ri-|tu-||i|sanc-||to.|
 A8- | A8- | A8- | A8 |] %171
w: ||||
V:4
 z8 | z8 | G4 G2 G2 | A6 GF | GF ED E2 E2 |[M:2/2] DEFG AB c2 | d2 B2 A4 | D4 z4 | z8 | z8 | %10
w: ||A- ni- ma|me- * *|* * a * do- mi-|­num, * * * * * *|||||
 d4 d2 d2 | e6 d2 | c2 BA B2 B2 | A4 z4 | z2 G2 G2 G2 | A6 G2 | F2 ED E2 E2 | %17
w: a- ni- ma|me- a|do * * * mi-|num,|a- ni- ma|me- a|do * * * mi-|
"^© Michael Wendel 2006\nThis edition may be freely duplicated, distributed, performed or recorded for non-profit performance or use.\n" A8 || %18
w: num.|
[M:2/2] z8 | z8 | z8 | z8 | z8 | z4 E4 |[M:2/2] F2 G2 A2 F2 | G2 A4 G2 | c6 B2 | A3 G F2 G2 | %28
w: |||||Qui-|­a re- spe- xit|hu- mi- li-|ta- tem|an- * cil- lae|
 A4 B4 | A8- | A8 | z8 | z2 A4 F2 | _B8 | A4 z4 | z4 z2 D2 | F2 G2 A4- | A2 _B2 A2 c2- | %38
w: su- *|­ae.|||Ec- ce,|e-|­nim|ex|hoc be- a-|* tam me di|
 cBAG F2 G2 | A4 D4- | D4 z4 | z8 | z8 | z2 D4 D2 | A2 B2 c3 B | A2 GF E2 G2- | G2 FE D4 | C6 D2 | %48
w: |* cent||||om- nes|ge- ne- ra- ti-|o * * * *|||
 E8 | A8 ||[M:2/2] z8 | z4 A4- | A2 D2 F2 G2 | A3 B c2 d2 | A2 B2 c4 | z8 |[M:2/2] z2 e4 A2 | %57
w: |nes.||Et|* mi- se- ri-|cor * * di-|a e- ius||a pro-|
 c2 d2 e4 | z2 A4 D2 | F2 G2 A4- | A4 z4 | z2 A4 D2 | F2 G2 A3 B | c2 d2 _B4 | z2 A4 D2 | %65
w: ge- ni- e,|a pro-|ge- ni- e||in pro-|ge * * *|* ni- es,|in pro-|
 F2 G2 A4- | A8 | z4 z2 A2 | A2 F2 G2 _B2 | A4 z2 e2 | e2 c2 d2 f2 | e4 z2 A2 | A2 F2 G2 _B2 | A8 | %74
w: ge- ni- es||ti-|men- ti- bus e-|um, ti-|men- ti- bus e-|um, ti-|­men- ti- bus e-|um,|
 z4 z2 A2 | A2 F2 G2 _B2 | A8 | z8 | z2 E2 E2 C2 | D2 F2 E4 | A8 ||[M:2/2] z8 | z8 | z8 | z8 | z8 | %86
w: ti-|men- ti- bus e-|um,||ti- men- ti-|bus e- *|um.||||||
 z8 |[M:2/2] F8 | E8 | F8 | G6 G2 | G8 | G4 _B4- | B2 A2 A4 | G8 | A8- | A8 | z8 | z8 | z4 G4 | %100
w: |De-||po-|* su-|it|po- ten-|* tes de|se-|de||||et|
 G4 G4 | A8 | G8 | F4 F4 | E8 | D8 | z8 | z8 | z2 G2 G2 G2 | A6 G2 | F2 ED E2 E2 | A8 || %112
w: ex- al-|ta-|vit|hu- mi-||les,|||et ex- al-|­ta- vit|hu- * * * mi-|les.|
[M:2/2] z8 | z4 D4 | E2 F2 G2 A2 | D2 d4 c2 | B2 A3 GFE | F4 E4 |[M:2/2] z8 | z8 | z8 | z4 z2 E2 | %122
w: |Sus-|ce- pit Is- ra-|el, sus- ce-|pit Is- * * *|ra- el||||pu-|
 F4 E2 C2 | D2 E2 F3 E | D4 C4- | C4 z4 | z4 z2 A2 | _B2 A4 F2 | G2 A2 D4 | z8 | z4 d4 | %131
w: e- rum su-||* um||pu-|e- rum su-|* * um||re-|
 A2 c3 B A2- | AGFE DC c2- | c2 A2 _B4 | A8 | D4 D4 | A8 | G8 | d8 | c4 A4 | c8 | _B4 G4 | A8 | %143
w: cor- da * *|||tus,|re- cor-|da-|­tus|mi-|se- ri-|cor-|di- ae|su-|
 D8 | E8 | A8 ||[M:2/2] A8 | F8 | G4 G4 | F2 ED E4 | D8 | G8 | F8 |[M:2/2] D4 A4- | A4 A4 | _B8 | %156
w: ||ae.|Glo-|ri-|a pa-||tri|et|fi-|­li- o,|* et|fi-|
 A8 | E8 | A4 D4- | D4 G4- | G2 FE D4 | C8- | C8 | D4 _B,4 | C8 | %165
w: li-|o|et spi-|* ri-||tu-||i sanc-|to,|
"^Sicut erat in principio et nunc et semper et in saecula\nsaeculorum. Amen." G8 | D4 F3 G | %167
w: et|spi- ri- tu-|
 A2 D3 E F2- | FEDC D4 | A8- | A8 |] %171
w: i sanc- * *||to.||

